src/containers/site/SiteRobotsScreen/asset/poloniex.svg

<svg width="144" height="23" viewBox="0 0 144 23" fill="none" xmlns="http://www.w3.org/2000/svg">
<g clip-path="url(#clip0)">
<path d="M137.779 9.14726L143.668 0.247559H137.238L134.471 4.30258L137.779 9.14726Z" fill="#B5B5B5"/>
<path d="M137.766 13.2629L134.471 17.8649L137.587 22.2175H144L137.766 13.2629Z" fill="#B5B5B5"/>
<path d="M11.5014 0.251221C13.6392 0.251221 15.2077 0.787515 16.2072 1.86114C17.2064 2.93467 17.7062 5.22861 17.7062 7.3667C17.7062 9.53277 17.1852 12.1298 16.1442 13.1985C15.1033 14.2675 13.5554 14.802 11.5014 14.802H4.93561V22.2279H0V0.251221H11.5014ZM4.93561 3.98782V11.093H9.91187C10.4698 11.093 10.9296 11.0419 11.2926 10.94C11.6548 10.8375 11.9427 10.6795 12.1569 10.4658C12.3705 10.2522 12.5196 9.97292 12.603 9.62924C12.6864 9.28547 12.7284 7.20826 12.7284 6.73441C12.7284 6.26055 12.6912 5.84908 12.617 5.50061C12.5425 5.15186 12.3982 4.86601 12.1849 4.64298C11.9706 4.41994 11.6757 4.25475 11.2992 4.14795C10.9224 4.04115 10.4277 3.98777 9.81442 3.98777H4.93561V3.98782Z" fill="#B5B5B5"/>
<path d="M19.3526 7.50142C19.3526 6.16294 19.5129 5.01932 19.8336 4.0716C20.1546 3.12332 20.6516 2.34742 21.3259 1.74301C21.9995 1.13888 22.8594 0.697456 23.9053 0.418417C24.9505 0.139379 26.2032 0 27.6629 0H30.0037C31.4723 0 32.7296 0.13736 33.7752 0.411516C34.8213 0.68572 35.6782 1.12249 36.3478 1.72212C37.017 2.3215 37.5068 3.09792 37.8189 4.05038C38.1302 5.0035 38.2857 6.15397 38.2857 7.50147V14.3698C38.2857 15.7086 38.1274 17.4596 37.8116 18.4079C37.4957 19.3562 37.003 20.1321 36.3338 20.7363C35.6644 21.3405 34.8069 21.782 33.761 22.0609C32.7158 22.3401 31.4628 22.4792 30.0036 22.4792H27.6629C26.2032 22.4792 24.9504 22.3401 23.9052 22.0609C22.8593 21.7821 21.9993 21.3405 21.3258 20.7363C20.6515 20.1321 20.1545 19.3562 19.8335 18.4079C19.5129 17.4597 19.3525 15.7087 19.3525 14.3698V7.50142H19.3526ZM28.6606 4.22464C27.8805 4.22464 27.2213 4.27844 26.6833 4.38514C26.1449 4.49227 25.704 4.69676 25.3606 4.99866C25.0173 5.30084 24.7689 5.72583 24.616 6.27438C24.4627 6.82274 24.3861 8.14663 24.3861 9.02994V13.4774C24.3861 14.3607 24.4627 15.6819 24.616 16.226C24.7689 16.7692 25.0173 17.1948 25.3606 17.5012C25.7039 17.808 26.1449 18.0153 26.6833 18.1219C27.2213 18.2287 27.8805 18.2822 28.6606 18.2822H28.9781C29.7578 18.2822 30.4167 18.2287 30.9548 18.1219C31.4934 18.0153 31.9345 17.8107 32.2777 17.5087C32.621 17.2065 32.8695 16.7813 33.0227 16.2326C33.1757 15.6846 33.2522 14.3607 33.2522 13.4774V9.00196C33.2522 8.11865 33.1757 6.79739 33.0227 6.25368C32.8696 5.70978 32.6232 5.28681 32.2846 4.98463C31.9459 4.68272 31.5048 4.48077 30.9622 4.37829C30.419 4.27604 29.7578 4.22464 28.9781 4.22464H28.6606Z" fill="#B5B5B5"/>
<path d="M45.2838 18.0036H53.7236V22.228H40.3477V0.251221H45.2837V18.0036H45.2838Z" fill="#B5B5B5"/>
<path d="M54.7852 7.50142C54.7852 6.16294 54.9452 5.01932 55.266 4.0716C55.5869 3.12332 56.0841 2.34742 56.758 1.74301C57.432 1.13888 58.2917 0.697456 59.3376 0.418417C60.3832 0.139379 61.6358 0 63.0955 0H65.4361C66.9047 0 68.1619 0.13736 69.2075 0.411516C70.2534 0.68572 71.1108 1.12249 71.7799 1.72212C72.4495 2.3215 72.9396 3.09792 73.2515 4.05038C73.5629 5.0035 73.7185 6.15397 73.7185 7.50147V14.3698C73.7185 15.7086 73.5598 17.4596 73.244 18.4079C72.9282 19.3562 72.4355 20.1321 71.7664 20.7363C71.0968 21.3405 70.2395 21.782 69.1935 22.0609C68.148 22.3401 66.8953 22.4792 65.4361 22.4792H63.0955C61.6358 22.4792 60.3832 22.3401 59.3376 22.0609C58.2917 21.7821 57.432 21.3405 56.758 20.7363C56.084 20.1321 55.5869 19.3562 55.266 18.4079C54.9452 17.4597 54.7852 15.7087 54.7852 14.3698V7.50142ZM64.093 4.22464C63.313 4.22464 62.654 4.27844 62.1156 4.38514C61.5773 4.49227 61.1363 4.69676 60.793 4.99866C60.4494 5.30084 60.2015 5.72583 60.0481 6.27438C59.8951 6.82274 59.8185 8.14663 59.8185 9.02994V13.4774C59.8185 14.3607 59.8951 15.6819 60.0481 16.226C60.2016 16.7692 60.4494 17.1948 60.793 17.5012C61.1363 17.808 61.5773 18.0153 62.1156 18.1219C62.654 18.2287 63.313 18.2822 64.093 18.2822H64.4104C65.1899 18.2822 65.8491 18.2287 66.3875 18.1219C66.9258 18.0153 67.3667 17.8107 67.7104 17.5087C68.0535 17.2065 68.3019 16.7813 68.455 16.2326C68.6084 15.6846 68.6849 14.3607 68.6849 13.4774V9.00196C68.6849 8.11865 68.6084 6.79739 68.455 6.25368C68.3018 5.70978 68.0557 5.28681 67.717 4.98463C67.3782 4.68272 66.9375 4.48077 66.3943 4.37829C65.8513 4.27604 65.1899 4.22464 64.4104 4.22464H64.093Z" fill="#B5B5B5"/>
<path d="M76.0625 0.251221H81.7376L89.9592 15.2549V0.251221H94.5881V22.228H88.9133L80.6919 7.05654V22.228H76.0625V0.251221H76.0625Z" fill="#B5B5B5"/>
<path d="M97.5869 0.251221H102.522V22.228H97.5869V0.251221Z" fill="#B5B5B5"/>
<path d="M105.495 0.251221H120.677V4.47562H110.431V8.9739H120.343V13.1708H110.431V18.0035H120.677V22.2279H105.495V0.251221Z" fill="#B5B5B5"/>
<path d="M136.317 11.2397L128.418 22.228H122.017L129.671 11.2601L122.365 0.251221H128.794L136.317 11.2397Z" fill="#B5B5B5"/>
</g>
<defs>
<clipPath id="clip0">
<rect width="144" height="22.4791" fill="white"/>
</clipPath>
</defs>
</svg>

<svg width="144" height="23" fill="none" xmlns="http://www.w3.org/2000/svg"><g clip-path="url(#clip0)" fill="#B5B5B5"><path d="M137.779 9.147l5.889-8.9h-6.43l-2.767 4.056 3.308 4.844zM137.766 13.263l-3.295 4.602 3.116 4.353H144l-6.234-8.955zM11.501.251c2.138 0 3.707.537 4.706 1.61 1 1.074 1.5 3.368 1.5 5.506 0 2.166-.522 4.763-1.563 5.831-1.04 1.07-2.589 1.604-4.643 1.604H4.936v7.426H0V.25h11.501zM4.936 3.988v7.105h4.976c.558 0 1.018-.051 1.38-.153.363-.102.65-.26.865-.474.213-.214.363-.493.446-.837.083-.344.125-2.42.125-2.895 0-.473-.037-.885-.111-1.233a1.734 1.734 0 00-.432-.858c-.214-.223-.51-.388-.886-.495-.377-.107-.871-.16-1.485-.16H4.936zM19.353 7.501c0-1.338.16-2.482.48-3.43.322-.948.819-1.724 1.493-2.328C22 1.139 22.859.697 23.906.418 24.95.14 26.202 0 27.662 0h2.34c1.47 0 2.727.137 3.772.412 1.046.274 1.903.71 2.573 1.31.669.6 1.159 1.376 1.47 2.328.312.954.468 2.104.468 3.451v6.869c0 1.339-.159 3.09-.474 4.038-.316.948-.809 1.724-1.478 2.328-.67.604-1.527 1.046-2.573 1.325-1.045.28-2.298.418-3.757.418h-2.341c-1.46 0-2.713-.139-3.758-.418-1.046-.279-1.906-.72-2.58-1.325-.674-.604-1.17-1.38-1.491-2.328-.321-.948-.482-2.7-.482-4.038V7.5zm9.308-3.276c-.78 0-1.44.053-1.978.16-.538.107-.979.312-1.322.614-.344.302-.592.727-.745 1.275-.153.549-.23 1.873-.23 2.756v4.447c0 .884.077 2.205.23 2.749.153.543.401.969.745 1.275.343.307.784.514 1.322.62.538.108 1.198.161 1.978.161h.317c.78 0 1.439-.053 1.977-.16.538-.107.98-.311 1.323-.613.343-.303.592-.728.745-1.276.153-.548.23-1.872.23-2.756V9.002c0-.883-.077-2.205-.23-2.748-.153-.544-.4-.967-.738-1.27-.34-.301-.78-.503-1.323-.606-.543-.102-1.204-.153-1.984-.153h-.317zM45.284 18.004h8.44v4.224H40.348V.251h4.936v17.753zM54.785 7.501c0-1.338.16-2.482.481-3.43.32-.948.818-1.724 1.492-2.328.674-.604 1.534-1.046 2.58-1.325C60.383.14 61.636 0 63.096 0h2.34c1.469 0 2.726.137 3.771.412 1.046.274 1.904.71 2.573 1.31.67.6 1.16 1.376 1.471 2.328.312.954.468 2.104.468 3.451v6.869c0 1.339-.16 3.09-.475 4.038-.316.948-.808 1.724-1.478 2.328-.67.604-1.526 1.046-2.573 1.325-1.045.28-2.298.418-3.757.418h-2.34c-1.46 0-2.713-.139-3.758-.418-1.046-.279-1.906-.72-2.58-1.325-.674-.604-1.171-1.38-1.492-2.328-.32-.948-.48-2.7-.48-4.038V7.5zm9.308-3.276c-.78 0-1.439.053-1.977.16-.539.107-.98.312-1.323.614-.344.302-.591.727-.745 1.275-.153.549-.23 1.873-.23 2.756v4.447c0 .884.077 2.205.23 2.749.154.543.401.969.745 1.275.343.307.784.514 1.323.62.538.108 1.197.161 1.977.161h.317c.78 0 1.44-.053 1.978-.16.538-.107.979-.311 1.322-.613.344-.303.592-.728.745-1.276.153-.548.23-1.872.23-2.756V9.002c0-.883-.077-2.205-.23-2.748-.153-.544-.4-.967-.738-1.27-.339-.301-.78-.503-1.323-.606-.543-.102-1.204-.153-1.984-.153h-.317zM76.063.251h5.675l8.221 15.004V.25h4.63v21.977h-5.676L80.692 7.057v15.171h-4.63V.251zM97.587.251h4.935v21.977h-4.935V.251zM105.495.251h15.182v4.225h-10.246v4.498h9.912v4.197h-9.912v4.832h10.246v4.225h-15.182V.25zM136.317 11.24l-7.899 10.988h-6.401l7.654-10.968L122.365.251h6.429l7.523 10.989z"/></g><defs><clipPath id="clip0"><path fill="#fff" d="M0 0h144v22.479H0z"/></clipPath></defs></svg>
